dist/assets/Filter.svg

<svg width="25" height="22" viewBox="0 0 25 22" fill="none" xmlns="http://www.w3.org/2000/svg">
<g id="Iconly/Bold/Filter">
<g id="Filter">
<path id="Vector" d="M20.2276 13.5076C22.5449 13.5076 24.4218 15.3529 24.4218 17.6296C24.4218 19.905 22.5449 21.7503 20.2276 21.7503C17.9116 21.7503 16.0334 19.905 16.0334 17.6296C16.0334 15.3529 17.9116 13.5076 20.2276 13.5076ZM9.88759 15.8718C10.9026 15.8718 11.7265 16.6813 11.7265 17.6785C11.7265 18.6744 10.9026 19.4852 9.88759 19.4852H1.86776C0.852745 19.4852 0.0288086 18.6744 0.0288086 17.6785C0.0288086 16.6813 0.852745 15.8718 1.86776 15.8718H9.88759ZM4.22303 0.067627C6.54035 0.067627 8.41724 1.91294 8.41724 4.18829C8.41724 6.46497 6.54035 8.31028 4.22303 8.31028C1.90706 8.31028 0.0288086 6.46497 0.0288086 4.18829C0.0288086 1.91294 1.90706 0.067627 4.22303 0.067627ZM22.5842 2.38292C23.5979 2.38292 24.4218 3.19241 24.4218 4.18829C24.4218 5.1855 23.5979 5.99499 22.5842 5.99499H14.5644C13.5494 5.99499 12.7254 5.1855 12.7254 4.18829C12.7254 3.19241 13.5494 2.38292 14.5644 2.38292H22.5842Z" fill="#5D7285"/>
</g>
</g>
</svg>

<svg width="25" height="22" fill="none" xmlns="http://www.w3.org/2000/svg"><path d="M20.228 13.508c2.317 0 4.194 1.845 4.194 4.122 0 2.275-1.877 4.12-4.194 4.12-2.316 0-4.195-1.845-4.195-4.12 0-2.277 1.879-4.122 4.195-4.122Zm-10.34 2.364c1.015 0 1.838.81 1.838 1.806s-.823 1.807-1.838 1.807h-8.02c-1.015 0-1.84-.81-1.84-1.806 0-.998.825-1.807 1.84-1.807h8.02ZM4.223.068c2.317 0 4.194 1.845 4.194 4.12 0 2.277-1.877 4.122-4.194 4.122C1.907 8.31.029 6.465.029 4.188c0-2.275 1.878-4.12 4.194-4.12Zm18.361 2.315c1.014 0 1.838.81 1.838 1.805 0 .998-.824 1.807-1.838 1.807h-8.02c-1.015 0-1.839-.81-1.839-1.807 0-.996.824-1.805 1.84-1.805h8.02Z" fill="#5D7285"/></svg>.18829C8.41724 6.46497 6.54035 8.31028 4.22303 8.31028C1.90706 8.31028 0.0288086 6.46497 0.0288086 4.18829C0.0288086 1.91294 1.90706 0.067627 4.22303 0.067627ZM22.5842 2.38292C23.5979 2.38292 24.4218 3.19241 24.4218 4.18829C24.4218 5.1855 23.5979 5.99499 22.5842 5.99499H14.5644C13.5494 5.99499 12.7254 5.1855 12.7254 4.18829C12.7254 3.19241 13.5494 2.38292 14.5644 2.38292H22.5842Z" fill="#5D7285"/>
</g>
</g>
</svg>
